dist/assets/img/section-2/play-store.svg

<svg width="45" height="41" viewBox="0 0 45 41" fill="none" xmlns="http://www.w3.org/2000/svg">
<path d="M24.2885 20.0775L29.8329 15.1632L11.9248 6.24191C10.7379 5.67353 9.62601 5.59375 8.65101 6.21532L24.2885 20.0775ZM30.7779 25.8311L36.5416 22.9576C37.6666 22.3992 38.2835 21.6081 38.2835 20.7306C38.2835 19.8548 37.6666 19.062 36.5435 18.5036L31.3254 15.906L25.451 21.1112L30.7779 25.8311ZM7.68726 7.42354C7.56726 7.75094 7.49976 8.11657 7.49976 8.51709V32.9558C7.49976 33.589 7.65726 34.1341 7.94226 34.5679L23.1241 21.1096L7.68726 7.42354ZM24.2885 22.1399L9.19101 35.5235C9.47976 35.6215 9.79101 35.6731 10.1191 35.6731C10.7041 35.6731 11.3135 35.5202 11.9341 35.2144L29.2873 26.5773L24.2885 22.1399Z" fill="white"/>
</svg>

<svg width="45" height="41" fill="none" xmlns="http://www.w3.org/2000/svg"><path d="M24.288 20.078l5.545-4.915-17.908-8.921c-1.187-.568-2.299-.648-3.274-.027l15.637 13.863zm6.49 5.753l5.764-2.873c1.125-.559 1.741-1.35 1.741-2.227 0-.876-.616-1.669-1.74-2.227l-5.218-2.598-5.874 5.205 5.327 4.72zM7.688 7.424A3.16 3.16 0 007.5 8.517v24.439c0 .633.157 1.178.442 1.612L23.124 21.11 7.687 7.424zm16.6 14.716L9.191 35.523c.289.098.6.15.928.15.585 0 1.194-.153 1.815-.459l17.353-8.637-4.998-4.437z" fill="#fff"/></svg>
